!!!COM: Buxtehude, Dietrich
!!!CDT: ~1637///-1707/05/09/
!!!ODT: ~1694///
!!!OTL: Sonata in F Major, Op. 1, No. 1
!!!OPS: Op. 1
!!!ONM: No. 1
!!!SCA: BuxWV 252
!!!OMD: 5. Grave
!!!URL: http://www.lysator.liu.se/~tuben/scores
!!!ONB: Johan Tufvessons, ed.
!!!SMA: facsmile of the original edition at Uppsala University
**kern	**kern	**kern
*staff3	*staff2	*staff1
*Icemba	*Iviola	*Ivioln
*clefF4	*clefC3	*clefG2
*k[b-]	*k[b-]	*k[b-]
*met(C)	*met(C)	*met(C)
*M4/4	*M4/4	*M4/4
*MM40	*MM40	*MM40
=126-	=126-	=126-
[1BB-	1r	4r
.	.	4f/
.	.	8r
.	.	16f/LL
.	.	16d/JJ
.	.	8.f/L
.	.	16f/Jk
=127	=127	=127
1BB-_	8r	2b-\
.	8B-\L	.
.	8F\	.
.	8D\J	.
.	2BB-/	8r
.	.	16b-/LL
.	.	16f/JJ
.	.	8.b-\L
.	.	16b-\Jk
=128	=128	=128
1BB-_	8r	2dd\
.	8B-\L	.
.	8F\	.
.	8D\J	.
.	2BB-/	8r
.	.	16dd\LL
.	.	16b-\JJ
.	.	8.dd\L
.	.	16dd\Jk
=129	=129	=129
1BB-_	8r	2ff\
.	8B-\L	.
.	8F\	.
.	8D\J	.
.	2BB-/	8r
.	.	16ff\LL
.	.	16dd\JJ
.	.	8.ff\L
.	.	16ff\Jk
=130	=130	=130
1BB-]	1BB-;	1bb-;
*	*clefC3	*
=131	=131	=131
[2B-\	2r	4r
.	.	4dd\
4B-\]	4r	2cc\
4A\	[4f\	.
=132	=132	=132
2G\	4f\]	2b-\
.	2e-\	.
4F\	.	4a/
4G\	[4d\	4b-\
=133	=133	=133
2E-\	4d\]	2g/
.	2c\	.
4D\	.	4f/
4E-\	[4B-/	4g/
=134	=134	=134
2C/	4B-/]	2e-/
.	4A/	.
2BB-/	2B-;/	2d;/
=135	=135	=135
4r	4r	4r
4B-\	4d\	4g/
2A\	2c\	2f/
=136	=136	=136
4r	4r	4r
4G\	4e\	4b-\
2F;\	2f;\	2a;/
==	==	==
*-	*-	*-
!!!ENC: Craig Stuart Sapp
!!!END: 2004/12/15/
